img/services/06.svg

<svg width="38" height="40" viewBox="0 0 38 40" fill="none" xmlns="http://www.w3.org/2000/svg">
<path d="M36.5 21.25H1.5C1.16848 21.25 0.850537 21.3817 0.616116 21.6161C0.381696 21.8505 0.25 22.1685 0.25 22.5V28.75C0.251986 30.7385 1.0428 32.645 2.44889 34.0511C3.85498 35.4572 5.76149 36.248 7.75 36.25H9V38.75C9 39.0815 9.1317 39.3995 9.36612 39.6339C9.60054 39.8683 9.91848 40 10.25 40C10.5815 40 10.8995 39.8683 11.1339 39.6339C11.3683 39.3995 11.5 39.0815 11.5 38.75V36.25H26.5V38.75C26.5 39.0815 26.6317 39.3995 26.8661 39.6339C27.1005 39.8683 27.4185 40 27.75 40C28.0815 40 28.3995 39.8683 28.6339 39.6339C28.8683 39.3995 29 39.0815 29 38.75V36.25H30.25C32.2385 36.248 34.145 35.4572 35.5511 34.0511C36.9572 32.645 37.748 30.7385 37.75 28.75V22.5C37.75 22.1685 37.6183 21.8505 37.3839 21.6161C37.1495 21.3817 36.8315 21.25 36.5 21.25Z" fill="white"/>
<path d="M19 7.625V6.25C19 5.25544 19.3951 4.30161 20.0983 3.59835C20.8016 2.89509 21.7554 2.5 22.75 2.5C23.7446 2.5 24.6984 2.89509 25.4017 3.59835C26.1049 4.30161 26.5 5.25544 26.5 6.25V18.75H29V6.25C29 4.5924 28.3415 3.00269 27.1694 1.83058C25.9973 0.65848 24.4076 0 22.75 0C21.0924 0 19.5027 0.65848 18.3306 1.83058C17.1585 3.00269 16.5 4.5924 16.5 6.25V7.625C15.0893 7.91512 13.8217 8.68273 12.9109 9.79844C12.0001 10.9141 11.5018 12.3097 11.5 13.75C11.5 14.0815 11.6317 14.3995 11.8661 14.6339C12.1005 14.8683 12.4185 15 12.75 15H22.75C23.0815 15 23.3995 14.8683 23.6339 14.6339C23.8683 14.3995 24 14.0815 24 13.75C23.9982 12.3097 23.4999 10.9141 22.5891 9.79844C21.6783 8.68273 20.4107 7.91512 19 7.625Z" fill="white"/>
</svg>

<svg width="38" height="40" viewBox="0 0 38 40" fill="none" xmlns="http://www.w3.org/2000/svg"><path d="M36.5 21.25h-35A1.25 1.25 0 00.25 22.5v6.25a7.508 7.508 0 007.5 7.5H9v2.5a1.25 1.25 0 002.5 0v-2.5h15v2.5a1.25 1.25 0 002.5 0v-2.5h1.25a7.508 7.508 0 007.5-7.5V22.5a1.25 1.25 0 00-1.25-1.25zM19 7.625V6.25a3.75 3.75 0 017.5 0v12.5H29V6.25a6.25 6.25 0 00-12.5 0v1.375a6.261 6.261 0 00-5 6.125A1.25 1.25 0 0012.75 15h10A1.25 1.25 0 0024 13.75a6.26 6.26 0 00-5-6.125z" fill="#fff"/></svg>
